X:1
T:Engelska efter Luringen
M:2/4
L:1/16
O:Blekinge
R:Engelska
N:Från Lunds Universitets Folkminnesarkiv.
Z:Andy Davey 2018
K:D
|: A2 | AFDF AFDF | A4 d2d2 | AFDF AFDF | E4 A,2A,2 | 
AFDF AFDF | A4 d2d2 | fafd egec | d2d2 d4 :|
|: f2f2 fagf | e2e2 egfe | d2cd efgf | edcB AGFE | 
   D2g2 fagf | e2e2 egfe | fafd egec | c2d2 d4 :|

